X:1
T:Magnificat quarti toni
T:Magnificat quarti toni
T:Giacomo Perlatio
C:Giacomo Perlatio
%%score [ 1 2 3 ]
L:1/8
Q:1/4=120
M:2/2
K:C
V:1 treble nm="Soprano 1" snm="S 1"
V:2 treble nm="Soprano 2" snm="S 2"
V:3 bass nm="Bass" snm="B"
V:1
"^Source: Philomela coelestis---München---N.Henricus---1624.""^(1)""^MAGNIFICAT""^A-          ni-  ma   me-                       a,                         A-        ni- ma   me-                      a,    A-    ni- ma" B6 ^GG | %1
 A8 |"^#" G8 | ^G6 BB | c2 B2 cBcA | B2 e4 BB | %6
"^me-               a         Do-               mi-  num, A-     ni-  ma   me-                                a     Do-     mi-  num." d3 c/B/ A2 B2 | %7
 ^G2 A4 G2 | A2 c4 BA | GFGA Bc d2 | d2 c2 B3 B | ^c8 |] %12
"^ET EXULTAVIT SPIRITUS MEUS * IN DEO SALUTARI MEO""^Quia respexit humiltatem     an-" B8- | B8 | %14
"^cil-             lae   su-                      ae:       ec-                       ce          e-" d6 A2 | %15
 A8 | B4 ^G4- | G4 A4 | B2 c4 B2 | %19
"^nim ex hoc be-    a-          tam me   di-           cent  om-       nes ge-  ne-  ra-" c2 e2 e2 e2 | %20
 d6 AB | ^c2 d4 c2 | d4 A2 A2 | B2 c2 d2 cB | A2 B2 c2 d2 | e2 dc B2 A2 | %26
 G2 A4"^ti-     o-                                      nes." ^G2 | A6 B2 | c8 | B8- | %30
 B8"^QUIA FECIT MIHI MAGNA\nQUI POTENS EST*\nET SANCTUM NOMEN EJUS" |]"^Et msericordia" B8 | %32
 z4"^Et                       mi-se-ri- cor-    di-  a    e-                                      ius          a" A4 | %33
 z"^#" G"^#"G"^#"G"^#" G2"^#" G"^#"G | A>BcB cBBA | B4 e4- | %36
"^pro-                 ge-                   ni-        e        in                    pro-       ge-           ni-    es                                   ti-" e4 d4- | %37
 d4 c4- | c4 B4 | c4 c4- | c4 d4 | e6 e2 | d8 | z4 z2 B2 | %44
"^mentibus e-        um,  ti-mentibus    e-                      um           ti-    me-ti- bus        e-                                       um." c2 cc B4 | %45
 A2 E2 A2 FF | E2 D4 ^C2 | D4 z2 B2 | d3 d B4 | ^G4 A4- | A4 ^G4 |"^." A8 |] z8 | z8 | z8 | z8 | %56
 z8 | z8 | z8 | z8 | z8 | z8 | z8 | z8 | z8 | z8 |] %66
"^Sus-              ce-pit  Is- ra- el   pu-e-  rum   su-                  um,               re-   cor-da-  tus                            mi- se- ri-" ^G8 | %67
 ^GGGA BABc | A8 | B8 | z2 d3 d A2 | B4 z4 | z2 d2 d2 d2 | %73
"^cor-            di-          ae    su-        ae,  mi- se- ri-     cor-            i-      ae  su-               ae." e6 d2- | %74
 d2 c2 B4 | A2 ^G2 G2 G2 | A6 B2 | ^G2 A4 G2 | A8 |] %79
"^Glo-      ri-    a       Pa-        tri     et               Fi-        li-        o,                   et_________  Fi-   li-      o," A4 A2 A2 | %80
 c4 c2 B2- | B2 A4 ^G2 | A4 z2 A2- | AG F2 E2 E2 | D8 | %85
 z2"^et           Spi-    ri-       tu- i____________________    San-                         cto,         et                            Spi-" e4 ^G2 | %86
 A3 B cBcA | B8 | A8 | ^G4 c4- | c4 B4- | %91
 B4"^ri-             tu-         i             San-                                                                                          cto." A4 | %92
 A4 ^G4 | AGAB c"^#"Bcd | e3 d c3 B | A8 | ^G8 |] %97
V:2
 z8 | z8 | z8 |"^A-         ni-  ma    me-                      a," B6 ^GG | A2 ^G2 AGA^F | ^G8 | %6
 z8 | z8 | z2"^A-      ni- ma   me-                         a      Do-        mi-    num." e4 dc | %9
 BABc d3 c | B2 A4 ^G2 | A8 |] z8 | z8 | z8 | z8 | %16
 z4"^ec-                     ce            e-" B4- | B4 c4 | d8 | %19
"^nim ex hoc be-   a-     tam  me      di-                      cent                                om- nes   ge- ne- ra-" e2 c2 c2 c2 | %20
 B4 d2 d2 | e8 | d8 | z4 D2 E2 | F2 G2 A2 GF | E2 F2 G2 A2 | %26
 B2 c2"^ti-            o-                                                                     nes." B4 | %27
 c6 B2 | A8- | A4 ^G2 ^F2 | ^G8 |]"^Et misericordia" ^G8 | %32
"^e-                                                                                                                           ius          a" A>BcB cBBA | %33
 B8 | A8 | ^G4 c4- | %36
"^pro-     ge-            ni-   e                                in          pro-    ge-             ni- es                   ti-         men-ti-bus e-" c4 d4 | %37
 e6 e2 | d8 | z4 e4 | e4 d4- | d2 d2 c4- | c4 B4 | c3 c c2 B2- | %44
"^um,              ti-   mentibus e-        um,                       ti-  men-              ti- bus   e-                 um." B2 A4 ^G2 | %45
 A4 z2 A2 | A2 FF E4 | D8 | z2 B2 d4- | d4 c2 c2 | B8 | A8 |] %52
"^Deposuit  po-     ten-                    tes        de           se-                                                 de,                      et exal-" A8 | %53
 ^G8 | A4 A4 | B8- | B8 | A8 | A8 | %59
"^ta-                                               vit                       hu-                                                            mi-           les" ^G8 | %60
 A8 | B8 | G8 | E8- | E4 A4 | ^G8 |] z8 | z8 | z8 | z8 | z8 | %71
 z2"^re-   cor-da- tus  mi-se-  ri-" d3 d A2 | B2 B2 B2 B2 | %73
"^cor-        di- ae    su-                     ae, mi- se- ri-     cor-             di-        ae   su-          ar." c6 AB | %74
 ^G2 A4 G2 | A2 B2 B2 B2 | e6 (d2 | d2) c2 B4 |"^ae" A8 |] z8 | %80
 z4 z2"^Et      Fi-          li-              o,     et_______      Fi-                 li-       o," B2 | %81
 c4 B4 | A2 A3 G F2 | E2 D4 ^C2 | D8 | z8 | z8 | %87
"^et          Spi-    ri-----tu-i___________,       et                            Spi-" z2 e4 ^G2 | %88
 A3 B cBcA | B4 e4- | e4 d4 | %91
"^ri-          tu-   i        San-                      cto,          San-                                                                          cto." c4 c2 c2 | %92
 B8 | A4 AGAB | cBcd e3 d | c8 | B8 |] %97
V:3
"^A-         ni-  ma    me-                     a,          A-                 ni-   ma          me-                      a" E,4 E,2 E,2 | %1
 A,,8 | E,4 E,4- | E,2 E,2 E,4 | A,,8 | E,8 | %6
"^Do-                                             mi-     num,   A- ni-ma     me-        a               Do-               mi-     num." D,8 | %7
 E,6 E,2 | A,,4 C,2 C,C, | G,4 D,4 | E,6 E,2 | C,8 |] %12
"^Quia respexit humilitatem    an-  cil-       lae           su-                     ae         ec-                      ce           e-" E,8- | %13
 E,8 | D,4 D,4 | F,8 | E,4 E,4- | E,4 A,4 | G,8 | %19
"^nim ex hoc be-   -     tam  me        di-                      cent                    om-nes  ge- ne-  ra-" C,2 C,2 C,2 C,2 | %20
 G,4 D,2 D,2 | A,,8 | D,8 | G,,2 A,,2 B,,2 C,2 | D,2 C,B,, A,,2 B,,2 | C,2 D,2 E,2 F,2 | %26
"^ti-             o-                                       nes." E,4 E,4 | A,,8- | A,,8 | E,8- | %30
 E,8 |]"^Et misericordia" E,8 | %32
"^e-                                                                                                                           ius           a" F,8 | %33
 E,8 | A,,8 | E,4 C,4- | %36
"^pro-     ge-       ni-        e                      in                              pro-      ge-                             ni-         es  ti-men-ti-" C,4 B,,4 | %37
 C,4 C,4 | G,8 | C,8- | C,4 G,4 | E,6 F,2 | G,4 G,4 | C,2 A,,2 A,,2 ^G,,2 | %44
"^bus       e-            um,                                             ti-         men-          ti-  bus       e-                                       um." A,,4"^FECIT POTENTIAM IN BRACHIO SUO*DISPERSIT SUPERBOS MENTE CORDIS SUI." E,4 | %45
 A,,8- | A,,8 | D,4 G,,4 | G,,2 G,,2 B,,4 | E,8- | E,8 | A,,8 |] %52
"^Deposuit  po-   ten-                     tes  de  se-          de,       de             se-                     de,                      et exal-" A,,8 | %53
 E,8 | ^C,2 C,2 D,4 | B,,4 E,4 | ^D,4 E,4 | A,,8 | A,,8 | %59
"^ta-                      vit                     hu-                                                                                        mi-         les." E,8"^ESURIENTES IMPLEVIT BONIS*ET DIVITES DIMISIT INANES" | %60
 ^F,8 | G,6 F,2 | E,2 D,2 C,4- | C,2 B,,2 A,,2"^#" G,,2 | A,,4 A,,4 | E,8 |] %66
"^Sus- ce-pit   Is-                   ra-                     el     pu-e-rum su- um,    re-                      cor-      da-         tus  mi-se- ri-" E,4 E,2 E,2 | %67
 E,4 E,4 | F,4 F,2 F,F, | E,4 E,4 | D,8 | G,,4 D,4 | G,,2 G,2 G,2 G,2 | %73
"^cor-         di-  ae      su-                          ae,  mi-  se-   ri-      cor-       di     ae       su-                           ae.""^SICUT LOCUTUS EST AD PATRES NOSTROS*ABRAHAM RT SEMINI EJUS IN SAECULA." C,4 C,2 D,2 | %74
 E,8 | A,,2 E,2 E,2 E,2 | ^C,4 D,2 D,2 | E,8 | A,,8 |] %79
"^Glo-       ri-    a       Pa-          tri   et       Fi-          li-              o,                                                            et" A,,4 A,,2 A,,2 | %80
 A,,4 A,,2"^#" G,,2 | A,,4 E,4 | A,,8- | A,,8 | D,8 | %85
"^Spi                           ri-                            tu-          i               San-                       cto           et             Spi-         ri-" E,8 | %86
 F,8 |"^#" E,4 E,4 | A,,8 | E,4 C,4 | A,,4 B,,4 | %91
"^tu-          i               San-                      cto,                             San-                                                      cto.""^NOTES:  1) in original: CC vel TT\n                2) original keys: Ut 1st, Ut 1st, Fa 4rth\n" C,4"^SICUT ERAT IN PRINCIPIO, ET NUNC,ET SEMPER, ET IN SAECULA SAECULORUM.\n                                                                  AMEN." D,4 | %92
 E,8 | A,,8 | A,,8- | A,,8 | E,8 |] %97

